Newaita-dark/apps/48/touch.svg

<svg height="48pt" viewBox="0 0 48 48" width="48pt" xmlns="http://www.w3.org/2000/svg" xmlns:xlink="http://www.w3.org/1999/xlink"><linearGradient id="a" gradientTransform="matrix(.150014 0 0 .093759 -14.288878 18.173611)" gradientUnits="userSpaceOnUse" x1="254" x2="254" y1="233.5" y2="254.666672"><stop offset="0" stop-opacity=".27451"/><stop offset="1" stop-opacity="0"/></linearGradient><linearGradient id="b"><stop offset="0" stop-opacity=".313726"/><stop offset=".222222" stop-opacity=".27451"/><stop offset="1" stop-opacity="0"/></linearGradient><radialGradient id="c" cx="450.908936" cy="189.579361" gradientTransform="matrix(.00000026 -.117199 -.210958 -.00000015 79.188254 93.408432)" gradientUnits="userSpaceOnUse" r="21.166656" xlink:href="#b"/><radialGradient id="d" cx="450.908936" cy="189.579361" gradientTransform="matrix(-.00000026 .117199 .210958 .00000015 -31.558712 -13.275785)" gradientUnits="userSpaceOnUse" r="21.166656" xlink:href="#b"/><radialGradient id="e" cx="450.908936" cy="189.579361" gradientTransform="matrix(-.00000026 -.117199 .210958 -.00000015 -31.558712 93.408432)" gradientUnits="userSpaceOnUse" r="21.166656" xlink:href="#b"/><radialGradient id="f" cx="450.908936" cy="189.579361" gradientTransform="matrix(.00000026 .117199 -.210958 .00000015 79.188251 -13.275785)" gradientUnits="userSpaceOnUse" r="21.166656" xlink:href="#b"/><linearGradient id="g" gradientUnits="userSpaceOnUse" x1="23.814786" x2="23.814786" y1="40.06633549995" y2="6.3287225"><stop offset="0" stop-color="#5c6bc0"/><stop offset="1" stop-color="#7986cb"/></linearGradient><linearGradient id="h" gradientUnits="userSpaceOnUse" x1="25.8023044999" x2="25.8023044999" y1="41.92100300005" y2="20.09078187499"><stop offset="0" stop-color="#bcaaa4"/><stop offset="1" stop-color="#d7ccc8"/></linearGradient><path d="m7.9375 40.066406h31.753906v1.984375h-31.753906zm0 0" fill="url(#a)"/><path d="m39.691406 40.066406h3.96875v-1.984375h-3.96875zm0 0" fill="url(#c)"/><path d="m7.9375 40.066406h-3.96875v1.984375h3.96875zm0 0" fill="url(#d)"/><path d="m7.9375 40.066406h-3.96875v-1.984375h3.96875zm0 0" fill="url(#e)"/><path d="m39.691406 40.066406h3.96875v1.984375h-3.96875zm0 0" fill="url(#f)"/><path d="m5.953125 6.328125h35.722656c1.097657 0 1.984375.890625 1.984375 1.984375v29.769531c0 1.097657-.886718 1.984375-1.984375 1.984375h-35.722656c-1.09375 0-1.984375-.886718-1.984375-1.984375v-29.769531c0-1.09375.890625-1.984375 1.984375-1.984375zm0 0" fill="url(#g)"/><path d="m5.953125 6.328125c-1.097656 0-1.984375.886719-1.984375 1.984375v.496094c0-1.097656.886719-1.984375 1.984375-1.984375h35.722656c1.097657 0 1.984375.886719 1.984375 1.984375v-.496094c0-1.097656-.886718-1.984375-1.984375-1.984375zm0 0" fill="#fff" fill-opacity=".392157"/><path d="m5.953125 40.066406c-1.097656 0-1.984375-.886718-1.984375-1.984375v-.496093c0 1.097656.886719 1.984374 1.984375 1.984374h35.722656c1.097657 0 1.984375-.886718 1.984375-1.984374v.496093c0 1.097657-.886718 1.984375-1.984375 1.984375zm0 0" fill-opacity=".235294"/><path d="m254.017409-9.936249c17.498329 0 31.746969 14.248639 31.746969 31.788631 0 17.498329-14.24864 31.746968-31.746969 31.746968-17.539991 0-31.746968-14.248639-31.746968-31.746968 0-17.539992 14.206977-31.788631 31.746968-31.788631zm0 0" style="fill:none;stroke-width:21.299999;stroke-linecap:round;stroke-linejoin:round;stroke:#fff;stroke-opacity:.392157" transform="matrix(.093759 0 0 .093759 0 20.158175)"/><path d="m254.017409-62.847863c46.745536 0 84.658582 37.913046 84.658582 84.700245 0 46.745536-37.913046 84.658582-84.658582 84.658582-46.787198 0-84.700245-37.913046-84.700245-84.658582 0-46.787199 37.913047-84.700245 84.700245-84.700245zm0 0" style="fill:none;stroke-width:21.132999;stroke-linecap:round;stroke-linejoin:round;stroke:#fff;stroke-opacity:.392157" transform="matrix(.093759 0 0 .093759 0 20.158175)"/><path d="m5.953125 6.1875c-1.175781 0-2.125.949219-2.125 2.125v29.769531c0 1.175781.949219 2.125 2.125 2.125h35.722656c1.175781 0 2.125-.949219 2.125-2.125v-29.769531c0-1.175781-.949219-2.125-2.125-2.125zm0 .28125h35.722656c1.023438 0 1.84375.820312 1.84375 1.84375v29.769531c0 1.023438-.820312 1.84375-1.84375 1.84375h-35.722656c-1.023437 0-1.84375-.820312-1.84375-1.84375v-29.769531c0-1.023438.820313-1.84375 1.84375-1.84375zm0 0"/><path d="m23.816406 20.089844c-1.097656 0-1.984375.886718-1.984375 1.984375v9.925781c0 .152344.019531.300781.050781.441406-.015624.085938-.027343.167969-.035156.253906l-.382812-.382812c-.777344-.777344-2.03125-.777344-2.808594 0s-.777344 2.03125 0 2.808594l3.511719 3.507812c.089843.089844.1875.171875.292969.242188 1.089843 1.804687 3.484374 3.050781 6.277343 3.050781h.082031c3.824219 0 6.90625-2.339844 6.90625-5.242187v-.433594c0-.046875-.003906-.097656-.003906-.148438 0-.042968.003906-.085937.003906-.128906v-2.976562c0-1.480469-1.070312-2.703126-2.480468-2.9375v-.042969c0-1.097657-.886719-1.984375-1.984375-1.984375-.609375 0-1.148438.269531-1.511719.695312-.144531-.957031-.964844-1.6875-1.964844-1.6875-1.097656 0-1.984375.886719-1.984375 1.984375v-6.945312c0-1.097657-.882812-1.984375-1.984375-1.984375zm0 0" fill="url(#h)"/><path d="m23.816406 20.089844c-1.097656 0-1.984375.886718-1.984375 1.984375v.875c0-1.097657.886719-1.984375 1.984375-1.984375 1.101563 0 1.984375.886718 1.984375 1.984375v-.875c0-1.097657-.882812-1.984375-1.984375-1.984375zm3.96875 6.945312c-1.097656 0-1.984375.886719-1.984375 1.984375v.875c0-1.097656.886719-1.984375 1.984375-1.984375 1 0 1.820313.730469 1.964844 1.6875.363281-.425781.902344-.695312 1.511719-.695312 1.097656 0 1.984375.886718 1.984375 1.984375v.042969c1.410156.234374 2.480468 1.453124 2.480468 2.933593v-.871093c0-1.480469-1.070312-2.703126-2.480468-2.9375v-.042969c0-1.097657-.886719-1.984375-1.984375-1.984375-.609375 0-1.148438.269531-1.511719.695312-.144531-.957031-.964844-1.6875-1.964844-1.6875zm-7.722656 4.695313c-.507812 0-1.015625.195312-1.40625.582031-.5.503906-.675781 1.199219-.53125 1.839844.078125-.351563.257812-.6875.53125-.964844.777344-.777344 2.03125-.777344 2.808594 0l.382812.382812c.007813-.085937.019532-.171874.035156-.253906-.03125-.144531-.050781-.292968-.050781-.445312v-.1875l-.367187-.371094c-.390625-.386719-.894532-.582031-1.402344-.582031zm0 0" fill="#fff" fill-opacity=".392157"/><path d="m21.832031 31.007812v.683594l.015625.011719c.007813-.085937.019532-.167969.035156-.253906-.03125-.140625-.050781-.289063-.050781-.441407zm-3.695312 2.214844c-.167969.65625.003906 1.382813.519531 1.898438l3.511719 3.507812c.089843.089844.1875.171875.292969.242188 1.089843 1.804687 3.484374 3.050781 6.277343 3.050781h.082031c3.824219 0 6.90625-2.339844 6.90625-5.242187v-.433594c0-.046875-.003906-.097656-.003906-.148438 0-.042968.003906-.085937.003906-.128906v-.28125c0 2.902344-3.082031 5.242188-6.90625 5.242188h-.082031c-2.792969 0-5.1875-1.246094-6.277343-3.050782-.105469-.070312-.203126-.152344-.292969-.242187l-3.511719-3.507813c-.257812-.261718-.433594-.574218-.519531-.90625zm17.589843 1.753906c0 .042969-.003906.085938-.003906.128907 0 .050781.003906.101562.003906.148437zm0 0" fill-opacity=".235294"/><path d="m23.816406 19.949219c-1.171875 0-2.125.949219-2.125 2.125v9.925781c0 .132812.019532.261719.042969.386719l-.171875-.171875c-.828125-.832032-2.171875-.832032-3.003906 0-.832032.832031-.832032 2.175781 0 3.003906l3.507812 3.507812c.089844.09375.1875.171876.289063.242188 1.128906 1.84375 3.558593 3.09375 6.382812 3.09375h.082031c1.941407 0 3.695313-.59375 4.972657-1.5625 1.273437-.96875 2.074219-2.320312 2.074219-3.820312v-.433594c0-.046875-.003907-.097656-.003907-.148438 0-.042968.003907-.085937.003907-.128906v-2.976562c0-1.507813-1.066407-2.757813-2.488282-3.046876-.039062-1.144531-.96875-2.058593-2.117187-2.058593-.558594 0-1.054688.222656-1.433594.570312-.246094-.898437-1.0625-1.5625-2.042969-1.5625-.792968 0-1.476562.441407-1.84375 1.089844v-5.910156c0-1.175781-.949218-2.125-2.125-2.125zm0 .28125c1.023438 0 1.84375.820312 1.84375 1.84375v6.945312h.28125c0-1.023437.820313-1.84375 1.84375-1.84375.933594 0 1.691406.679688 1.824219 1.570313.007813.054687.046875.097656.101563.113281.050781.015625.109374 0 .144531-.042969.339843-.394531.839843-.648437 1.40625-.648437 1.023437 0 1.84375.820312 1.84375 1.84375v.042969c0 .070312.046875.128906.117187.140624 1.34375.222657 2.363282 1.382813 2.363282 2.796876v2.976562c0 .039062-.003907.082031-.003907.121094v.011718c0 .050782.003907.097657.003907.144532v.433594c0 1.402343-.742188 2.671874-1.964844 3.597656-1.21875.925781-2.917969 1.503906-4.800782 1.503906h-.082031c-2.75 0-5.101562-1.234375-6.15625-2.984375-.011719-.015625-.027343-.03125-.042969-.042969-.097656-.0625-.1875-.140625-.273437-.226562l-3.507813-3.507813c-.722656-.722656-.722656-1.882812 0-2.605469.722657-.726562 1.882813-.726562 2.609376 0l.382812.382813c.035156.039063.09375.050781.144531.03125.050781-.015625.085938-.0625.09375-.117187.007813-.082032.019531-.164063.035157-.242188 0-.019531 0-.039062-.003907-.058594-.03125-.132812-.046875-.269531-.046875-.410156v-9.925781c0-1.023438.820313-1.84375 1.84375-1.84375zm0 0" fill="#212121"/></svg>

<?xml version="1.0" encoding="UTF-8"?>
<svg xmlns="http://www.w3.org/2000/svg" xmlns:xlink="http://www.w3.org/1999/xlink" width="48pt" height="48pt" viewBox="0 0 48 48" version="1.1">
<defs>
<linearGradient id="linear0" gradientUnits="userSpaceOnUse" x1="254" y1="233.5" x2="254" y2="254.666672" gradientTransform="matrix(0.150014,0,0,0.093759,-14.288878,18.173611)">
<stop offset="0" style="stop-color:rgb(0%,0%,0%);stop-opacity:0.27451;"/>
<stop offset="1" style="stop-color:rgb(0%,0%,0%);stop-opacity:0;"/>
</linearGradient>
<radialGradient id="radial0" gradientUnits="userSpaceOnUse" cx="450.908936" cy="189.579361" fx="450.908936" fy="189.579361" r="21.166656" gradientTransform="matrix(0.000000261256,-0.117199,-0.210958,-0.000000152308,79.188254,93.408432)">
<stop offset="0" style="stop-color:rgb(0%,0%,0%);stop-opacity:0.313726;"/>
<stop offset="0.222222" style="stop-color:rgb(0%,0%,0%);stop-opacity:0.27451;"/>
<stop offset="1" style="stop-color:rgb(0%,0%,0%);stop-opacity:0;"/>
</radialGradient>
<radialGradient id="radial1" gradientUnits="userSpaceOnUse" cx="450.908936" cy="189.579361" fx="450.908936" fy="189.579361" r="21.166656" gradientTransform="matrix(-0.000000261256,0.117199,0.210958,0.000000152308,-31.558712,-13.275785)">
<stop offset="0" style="stop-color:rgb(0%,0%,0%);stop-opacity:0.313726;"/>
<stop offset="0.222222" style="stop-color:rgb(0%,0%,0%);stop-opacity:0.27451;"/>
<stop offset="1" style="stop-color:rgb(0%,0%,0%);stop-opacity:0;"/>
</radialGradient>
<radialGradient id="radial2" gradientUnits="userSpaceOnUse" cx="450.908936" cy="189.579361" fx="450.908936" fy="189.579361" r="21.166656" gradientTransform="matrix(-0.000000261256,-0.117199,0.210958,-0.000000152308,-31.558712,93.408432)">
<stop offset="0" style="stop-color:rgb(0%,0%,0%);stop-opacity:0.313726;"/>
<stop offset="0.222222" style="stop-color:rgb(0%,0%,0%);stop-opacity:0.27451;"/>
<stop offset="1" style="stop-color:rgb(0%,0%,0%);stop-opacity:0;"/>
</radialGradient>
<radialGradient id="radial3" gradientUnits="userSpaceOnUse" cx="450.908936" cy="189.579361" fx="450.908936" fy="189.579361" r="21.166656" gradientTransform="matrix(0.000000261256,0.117199,-0.210958,0.000000152308,79.188251,-13.275785)">
<stop offset="0" style="stop-color:rgb(0%,0%,0%);stop-opacity:0.313726;"/>
<stop offset="0.222222" style="stop-color:rgb(0%,0%,0%);stop-opacity:0.27451;"/>
<stop offset="1" style="stop-color:rgb(0%,0%,0%);stop-opacity:0;"/>
</radialGradient>
<linearGradient id="linear1" gradientUnits="userSpaceOnUse" x1="254" y1="212.333328" x2="254" y2="-147.5" gradientTransform="matrix(0.093759,0,0,0.093759,0,20.158175)">
<stop offset="0" style="stop-color:rgb(36.078432%,41.960785%,75.294119%);stop-opacity:1;"/>
<stop offset="1" style="stop-color:rgb(47.450981%,52.549022%,79.607844%);stop-opacity:1;"/>
</linearGradient>
<linearGradient id="linear2" gradientUnits="userSpaceOnUse" x1="275.166656" y1="191.166672" x2="275.166656" y2="-41.666668" gradientTransform="matrix(0.093759,0,0,0.093759,0.0029535,23.997407)">
<stop offset="0" style="stop-color:rgb(73.725492%,66.666669%,64.313728%);stop-opacity:1;"/>
<stop offset="1" style="stop-color:rgb(84.313726%,80.000001%,78.431374%);stop-opacity:1;"/>
</linearGradient>
</defs>
<g id="surface1">
<path style=" stroke:none;fill-rule:nonzero;fill:url(#linear0);" d="M 7.9375 40.066406 L 39.691406 40.066406 L 39.691406 42.050781 L 7.9375 42.050781 Z M 7.9375 40.066406 "/>
<path style=" stroke:none;fill-rule:nonzero;fill:url(#radial0);" d="M 39.691406 40.066406 L 43.660156 40.066406 L 43.660156 38.082031 L 39.691406 38.082031 Z M 39.691406 40.066406 "/>
<path style=" stroke:none;fill-rule:nonzero;fill:url(#radial1);" d="M 7.9375 40.066406 L 3.96875 40.066406 L 3.96875 42.050781 L 7.9375 42.050781 Z M 7.9375 40.066406 "/>
<path style=" stroke:none;fill-rule:nonzero;fill:url(#radial2);" d="M 7.9375 40.066406 L 3.96875 40.066406 L 3.96875 38.082031 L 7.9375 38.082031 Z M 7.9375 40.066406 "/>
<path style=" stroke:none;fill-rule:nonzero;fill:url(#radial3);" d="M 39.691406 40.066406 L 43.660156 40.066406 L 43.660156 42.050781 L 39.691406 42.050781 Z M 39.691406 40.066406 "/>
<path style=" stroke:none;fill-rule:nonzero;fill:url(#linear1);" d="M 5.953125 6.328125 L 41.675781 6.328125 C 42.773438 6.328125 43.660156 7.21875 43.660156 8.3125 L 43.660156 38.082031 C 43.660156 39.179688 42.773438 40.066406 41.675781 40.066406 L 5.953125 40.066406 C 4.859375 40.066406 3.96875 39.179688 3.96875 38.082031 L 3.96875 8.3125 C 3.96875 7.21875 4.859375 6.328125 5.953125 6.328125 Z M 5.953125 6.328125 "/>
<path style=" stroke:none;fill-rule:nonzero;fill:rgb(100%,100%,100%);fill-opacity:0.392157;" d="M 5.953125 6.328125 C 4.855469 6.328125 3.96875 7.214844 3.96875 8.3125 L 3.96875 8.808594 C 3.96875 7.710938 4.855469 6.824219 5.953125 6.824219 L 41.675781 6.824219 C 42.773438 6.824219 43.660156 7.710938 43.660156 8.808594 L 43.660156 8.3125 C 43.660156 7.214844 42.773438 6.328125 41.675781 6.328125 Z M 5.953125 6.328125 "/>
<path style=" stroke:none;fill-rule:nonzero;fill:rgb(0%,0%,0%);fill-opacity:0.235294;" d="M 5.953125 40.066406 C 4.855469 40.066406 3.96875 39.179688 3.96875 38.082031 L 3.96875 37.585938 C 3.96875 38.683594 4.855469 39.570312 5.953125 39.570312 L 41.675781 39.570312 C 42.773438 39.570312 43.660156 38.683594 43.660156 37.585938 L 43.660156 38.082031 C 43.660156 39.179688 42.773438 40.066406 41.675781 40.066406 Z M 5.953125 40.066406 "/>
<path style="fill:none;stroke-width:21.299999;stroke-linecap:round;stroke-linejoin:round;stroke:rgb(100%,100%,100%);stroke-opacity:0.392157;stroke-miterlimit:4;" d="M 254.017409 -9.936249 C 271.515738 -9.936249 285.764378 4.31239 285.764378 21.852382 C 285.764378 39.350711 271.515738 53.59935 254.017409 53.59935 C 236.477418 53.59935 222.270441 39.350711 222.270441 21.852382 C 222.270441 4.31239 236.477418 -9.936249 254.017409 -9.936249 Z M 254.017409 -9.936249 " transform="matrix(0.093759,0,0,0.093759,0,20.158175)"/>
<path style="fill:none;stroke-width:21.132999;stroke-linecap:round;stroke-linejoin:round;stroke:rgb(100%,100%,100%);stroke-opacity:0.392157;stroke-miterlimit:4;" d="M 254.017409 -62.847863 C 300.762945 -62.847863 338.675991 -24.934817 338.675991 21.852382 C 338.675991 68.597918 300.762945 106.510964 254.017409 106.510964 C 207.230211 106.510964 169.317164 68.597918 169.317164 21.852382 C 169.317164 -24.934817 207.230211 -62.847863 254.017409 -62.847863 Z M 254.017409 -62.847863 " transform="matrix(0.093759,0,0,0.093759,0,20.158175)"/>
<path style=" stroke:none;fill-rule:nonzero;fill:rgb(0%,0%,0%);fill-opacity:1;" d="M 5.953125 6.1875 C 4.777344 6.1875 3.828125 7.136719 3.828125 8.3125 L 3.828125 38.082031 C 3.828125 39.257812 4.777344 40.207031 5.953125 40.207031 L 41.675781 40.207031 C 42.851562 40.207031 43.800781 39.257812 43.800781 38.082031 L 43.800781 8.3125 C 43.800781 7.136719 42.851562 6.1875 41.675781 6.1875 Z M 5.953125 6.46875 L 41.675781 6.46875 C 42.699219 6.46875 43.519531 7.289062 43.519531 8.3125 L 43.519531 38.082031 C 43.519531 39.105469 42.699219 39.925781 41.675781 39.925781 L 5.953125 39.925781 C 4.929688 39.925781 4.109375 39.105469 4.109375 38.082031 L 4.109375 8.3125 C 4.109375 7.289062 4.929688 6.46875 5.953125 6.46875 Z M 5.953125 6.46875 "/>
<path style=" stroke:none;fill-rule:nonzero;fill:url(#linear2);" d="M 23.816406 20.089844 C 22.71875 20.089844 21.832031 20.976562 21.832031 22.074219 L 21.832031 32 C 21.832031 32.152344 21.851562 32.300781 21.882812 32.441406 C 21.867188 32.527344 21.855469 32.609375 21.847656 32.695312 L 21.464844 32.3125 C 20.6875 31.535156 19.433594 31.535156 18.65625 32.3125 C 17.878906 33.089844 17.878906 34.34375 18.65625 35.121094 L 22.167969 38.628906 C 22.257812 38.71875 22.355469 38.800781 22.460938 38.871094 C 23.550781 40.675781 25.945312 41.921875 28.738281 41.921875 L 28.820312 41.921875 C 32.644531 41.921875 35.726562 39.582031 35.726562 36.679688 L 35.726562 36.246094 C 35.726562 36.199219 35.722656 36.148438 35.722656 36.097656 C 35.722656 36.054688 35.726562 36.011719 35.726562 35.96875 L 35.726562 32.992188 C 35.726562 31.511719 34.65625 30.289062 33.246094 30.054688 L 33.246094 30.011719 C 33.246094 28.914062 32.359375 28.027344 31.261719 28.027344 C 30.652344 28.027344 30.113281 28.296875 29.75 28.722656 C 29.605469 27.765625 28.785156 27.035156 27.785156 27.035156 C 26.6875 27.035156 25.800781 27.921875 25.800781 29.019531 L 25.800781 22.074219 C 25.800781 20.976562 24.917969 20.089844 23.816406 20.089844 Z M 23.816406 20.089844 "/>
<path style=" stroke:none;fill-rule:nonzero;fill:rgb(100%,100%,100%);fill-opacity:0.392157;" d="M 23.816406 20.089844 C 22.71875 20.089844 21.832031 20.976562 21.832031 22.074219 L 21.832031 22.949219 C 21.832031 21.851562 22.71875 20.964844 23.816406 20.964844 C 24.917969 20.964844 25.800781 21.851562 25.800781 22.949219 L 25.800781 22.074219 C 25.800781 20.976562 24.917969 20.089844 23.816406 20.089844 Z M 27.785156 27.035156 C 26.6875 27.035156 25.800781 27.921875 25.800781 29.019531 L 25.800781 29.894531 C 25.800781 28.796875 26.6875 27.910156 27.785156 27.910156 C 28.785156 27.910156 29.605469 28.640625 29.75 29.597656 C 30.113281 29.171875 30.652344 28.902344 31.261719 28.902344 C 32.359375 28.902344 33.246094 29.789062 33.246094 30.886719 L 33.246094 30.929688 C 34.65625 31.164062 35.726562 32.382812 35.726562 33.863281 L 35.726562 32.992188 C 35.726562 31.511719 34.65625 30.289062 33.246094 30.054688 L 33.246094 30.011719 C 33.246094 28.914062 32.359375 28.027344 31.261719 28.027344 C 30.652344 28.027344 30.113281 28.296875 29.75 28.722656 C 29.605469 27.765625 28.785156 27.035156 27.785156 27.035156 Z M 20.0625 31.730469 C 19.554688 31.730469 19.046875 31.925781 18.65625 32.3125 C 18.15625 32.816406 17.980469 33.511719 18.125 34.152344 C 18.203125 33.800781 18.382812 33.464844 18.65625 33.1875 C 19.433594 32.410156 20.6875 32.410156 21.464844 33.1875 L 21.847656 33.570312 C 21.855469 33.484375 21.867188 33.398438 21.882812 33.316406 C 21.851562 33.171875 21.832031 33.023438 21.832031 32.871094 L 21.832031 32.683594 L 21.464844 32.3125 C 21.074219 31.925781 20.570312 31.730469 20.0625 31.730469 Z M 20.0625 31.730469 "/>
<path style=" stroke:none;fill-rule:nonzero;fill:rgb(0%,0%,0%);fill-opacity:0.235294;" d="M 21.832031 31.007812 L 21.832031 31.691406 L 21.847656 31.703125 C 21.855469 31.617188 21.867188 31.535156 21.882812 31.449219 C 21.851562 31.308594 21.832031 31.160156 21.832031 31.007812 Z M 18.136719 33.222656 C 17.96875 33.878906 18.140625 34.605469 18.65625 35.121094 L 22.167969 38.628906 C 22.257812 38.71875 22.355469 38.800781 22.460938 38.871094 C 23.550781 40.675781 25.945312 41.921875 28.738281 41.921875 L 28.820312 41.921875 C 32.644531 41.921875 35.726562 39.582031 35.726562 36.679688 L 35.726562 36.246094 C 35.726562 36.199219 35.722656 36.148438 35.722656 36.097656 C 35.722656 36.054688 35.726562 36.011719 35.726562 35.96875 L 35.726562 35.6875 C 35.726562 38.589844 32.644531 40.929688 28.820312 40.929688 L 28.738281 40.929688 C 25.945312 40.929688 23.550781 39.683594 22.460938 37.878906 C 22.355469 37.808594 22.257812 37.726562 22.167969 37.636719 L 18.65625 34.128906 C 18.398438 33.867188 18.222656 33.554688 18.136719 33.222656 Z M 35.726562 34.976562 C 35.726562 35.019531 35.722656 35.0625 35.722656 35.105469 C 35.722656 35.15625 35.726562 35.207031 35.726562 35.253906 Z M 35.726562 34.976562 "/>
<path style=" stroke:none;fill-rule:nonzero;fill:rgb(12.941177%,12.941177%,12.941177%);fill-opacity:1;" d="M 23.816406 19.949219 C 22.644531 19.949219 21.691406 20.898438 21.691406 22.074219 L 21.691406 32 C 21.691406 32.132812 21.710938 32.261719 21.734375 32.386719 L 21.5625 32.214844 C 20.734375 31.382812 19.390625 31.382812 18.558594 32.214844 C 17.726562 33.046875 17.726562 34.390625 18.558594 35.21875 L 22.066406 38.726562 C 22.15625 38.820312 22.253906 38.898438 22.355469 38.96875 C 23.484375 40.8125 25.914062 42.0625 28.738281 42.0625 L 28.820312 42.0625 C 30.761719 42.0625 32.515625 41.46875 33.792969 40.5 C 35.066406 39.53125 35.867188 38.179688 35.867188 36.679688 L 35.867188 36.246094 C 35.867188 36.199219 35.863281 36.148438 35.863281 36.097656 C 35.863281 36.054688 35.867188 36.011719 35.867188 35.96875 L 35.867188 32.992188 C 35.867188 31.484375 34.800781 30.234375 33.378906 29.945312 C 33.339844 28.800781 32.410156 27.886719 31.261719 27.886719 C 30.703125 27.886719 30.207031 28.109375 29.828125 28.457031 C 29.582031 27.558594 28.765625 26.894531 27.785156 26.894531 C 26.992188 26.894531 26.308594 27.335938 25.941406 27.984375 L 25.941406 22.074219 C 25.941406 20.898438 24.992188 19.949219 23.816406 19.949219 Z M 23.816406 20.230469 C 24.839844 20.230469 25.660156 21.050781 25.660156 22.074219 L 25.660156 29.019531 L 25.941406 29.019531 C 25.941406 27.996094 26.761719 27.175781 27.785156 27.175781 C 28.71875 27.175781 29.476562 27.855469 29.609375 28.746094 C 29.617188 28.800781 29.65625 28.84375 29.710938 28.859375 C 29.761719 28.875 29.820312 28.859375 29.855469 28.816406 C 30.195312 28.421875 30.695312 28.167969 31.261719 28.167969 C 32.285156 28.167969 33.105469 28.988281 33.105469 30.011719 L 33.105469 30.054688 C 33.105469 30.125 33.152344 30.183594 33.222656 30.195312 C 34.566406 30.417969 35.585938 31.578125 35.585938 32.992188 L 35.585938 35.96875 C 35.585938 36.007812 35.582031 36.050781 35.582031 36.089844 C 35.582031 36.09375 35.582031 36.097656 35.582031 36.101562 C 35.582031 36.152344 35.585938 36.199219 35.585938 36.246094 L 35.585938 36.679688 C 35.585938 38.082031 34.84375 39.351562 33.621094 40.277344 C 32.402344 41.203125 30.703125 41.78125 28.820312 41.78125 L 28.738281 41.78125 C 25.988281 41.78125 23.636719 40.546875 22.582031 38.796875 C 22.570312 38.78125 22.554688 38.765625 22.539062 38.753906 C 22.441406 38.691406 22.351562 38.613281 22.265625 38.527344 L 18.757812 35.019531 C 18.035156 34.296875 18.035156 33.136719 18.757812 32.414062 C 19.480469 31.6875 20.640625 31.6875 21.367188 32.414062 L 21.75 32.796875 C 21.785156 32.835938 21.84375 32.847656 21.894531 32.828125 C 21.945312 32.8125 21.980469 32.765625 21.988281 32.710938 C 21.996094 32.628906 22.007812 32.546875 22.023438 32.46875 C 22.023438 32.449219 22.023438 32.429688 22.019531 32.410156 C 21.988281 32.277344 21.972656 32.140625 21.972656 32 L 21.972656 22.074219 C 21.972656 21.050781 22.792969 20.230469 23.816406 20.230469 Z M 23.816406 20.230469 "/>
</g>
</svg>
